X: 3
T: Miss Coopers Fancy
%%VWML:Skillerns1780-2277i-p2-0
F:http://www.vwml.org/record/Skillerns1780/2277i/p2
%R: jig
B: "Twenty Four Country Dances for the Year 1780", Thomas Skillern, ed. p.2 #1
F: http://www.vwml.org/browse/browse-collections-dance-tune-books/browse-skillerns1780#
Z: 2014 John Chambers <jc:trillian.mit.edu>
M: 6/8
L: 1/8
K: Bb
|:\
B2f fdB | gec fdB | B2f fdB | ecA BFD |\
B2f fdB | c2g gec | d2f fed | B3 B,3 :|
|:\
b2b bag | {g}f2f def | {^f}g2g gfe | {e}d2d Bcd |\
e2e cde | f2f gec | fdB ecA | B3 B,3 :|
W:
W:  Right hands across Left hands back
W:again Lead down two Cu.s up again and
W:cast off turn your Part.r with the Right hand
W:the same with the Left hand lead thro' the bottom
W:come up one Cu: lead thro' the top & cast off.
%%endtext
T: King of Polands Allmand
%R: reel
B: "Twenty Four Country Dances for the Year 1780", Thomas Skillern, ed. p.2 #2
F: http://www.vwml.org/browse/browse-collections-dance-tune-books/browse-skillerns1780#
Z: 2014 John Chambers <jc:trillian.mit.edu>
M: 2/4
L: 1/16
K: A
{b}a2gf |\
{f}e2dc Bcde | {d}c2BA {b}a2gf |\
{f}e2dc BcdB | A4 :|
|: B2ed |\
{d}c2BA Bcde | {d}c2BA B2ed |\
{d}c2BA BcdB | A4 :|
W:
W:  Right hands across .|.
W:Left hands back again :|.
W:Lead down two Cu .|:
W:up again and Cast off :|:

